X: 42178
T: Waterford Boys, The
R: jig
M: 6/8
K: Dmajor
|:dBA|GGG GBd|ggg edd|dBd gfe|dBd e2 e|
ddd def|gga|gfe ded|BGB AGF|G3:|

